svgs/thin/do-not-enter.svg

<svg xmlns="http://www.w3.org/2000/svg" viewBox="0 0 512 512"><!--! Font Awesome Pro 6.4.0 by @fontawesome - https://fontawesome.com License - https://fontawesome.com/license (Commercial License) Copyright 2023 Fonticons, Inc. --><path d="M496 256A240 240 0 1 0 16 256a240 240 0 1 0 480 0zM0 256a256 256 0 1 1 512 0A256 256 0 1 1 0 256zm96-16v32c0 8.8 7.2 16 16 16H400c8.8 0 16-7.2 16-16V240c0-8.8-7.2-16-16-16H112c-8.8 0-16 7.2-16 16zm-16 0c0-17.7 14.3-32 32-32H400c17.7 0 32 14.3 32 32v32c0 17.7-14.3 32-32 32H112c-17.7 0-32-14.3-32-32V240z"/></svg>

<svg xmlns="http://www.w3.org/2000/svg" viewBox="0 0 512 512"><!--! Font Awesome Pro 6.3.0 by @fontawesome - https://fontawesome.com License - https://fontawesome.com/license (Commercial License) Copyright 2023 Fonticons, Inc. --><path d="M80 240C80 222.3 94.33 208 112 208H400C417.7 208 432 222.3 432 240V272C432 289.7 417.7 304 400 304H112C94.33 304 80 289.7 80 272V240zM96 272C96 280.8 103.2 288 112 288H400C408.8 288 416 280.8 416 272V240C416 231.2 408.8 224 400 224H112C103.2 224 96 231.2 96 240V272zM512 256C512 397.4 397.4 512 256 512C114.6 512 0 397.4 0 256C0 114.6 114.6 0 256 0C397.4 0 512 114.6 512 256zM256 16C123.5 16 16 123.5 16 256C16 388.5 123.5 496 256 496C388.5 496 496 388.5 496 256C496 123.5 388.5 16 256 16z"/></svg>
